svg/u1f389.svg

<svg viewBox="0 0 128 128" xmlns="http://www.w3.org/2000/svg">
  <g>
    <g>
      <g>
        <path d="M7.45,123.27c2.27,2.46,11.62-1.83,19-5.27c5.53-2.57,27.66-11.65,38.66-16.36 c2.97-1.27,7.29-2.93,10.4-7.02c2.76-3.64,10.08-19.1-4.66-34.76c-14.96-15.9-30.37-11.51-36.13-7.43 c-3.39,2.4-6.15,7.81-7.39,10.56c-5.24,11.62-12.71,32.91-15.75,41.28C9.35,110.44,5.2,120.83,7.45,123.27z" fill="#FFC107"/>
        <path d="M25.85,66.49c0.14,1.74,0.49,4.57,1.69,10.02c0.82,3.74,2.16,7.66,3.25,10.25 c3.27,7.79,7.86,10.93,12.51,13.45c7.9,4.28,13.27,5.08,13.27,5.08l-6.44,2.63c0,0-3.9-0.81-9.22-3.43 c-5.07-2.5-10.35-6.73-14.21-15.01c-1.67-3.59-2.64-7.07-3.2-9.83c-0.69-3.42-0.8-5.36-0.8-5.36L25.85,66.49z" fill="#FF8F00"/>
        <path d="M17.94,86.77c0,0,0.8,6.49,6.16,14.68c6.28,9.58,15.05,11.15,15.05,11.15l-5.83,2.4 c0,0-6.51-1.99-12.7-10.44c-3.86-5.27-4.94-11.57-4.94-11.57L17.94,86.77z" fill="#FF8F00"/>
        <path d="M12.39,102.15c0,0,1.46,5.6,4.66,9.78c3.81,4.99,8.66,6.44,8.66,6.44l-4.47,1.98 c0,0-3.39-0.71-7.1-5.41c-2.82-3.57-3.62-7.67-3.62-7.67L12.39,102.15z" fill="#FF8F00"/>
        <g opacity="0.44">
          <path d="M9.96,116.37L9.96,116.37c-0.2-0.45-0.2-0.96,0.01-1.4l25.47-52.82l4.19,15.75l-26.8,38.71 C12.11,117.69,10.49,117.55,9.96,116.37z" fill="#FFFDE7"/>
        </g>
        <linearGradient id="SVGID_1_" gradientUnits="userSpaceOnUse" x1="74.3843" x2="44.617" y1="61.8385" y2="79.6989">
          <stop offset="0.0235" stop-color="#8F4700"/>
          <stop offset="1" stop-color="#703E2D"/>
        </linearGradient>
        <path d="M41.65,83.19c11.9,13.92,25.45,12.18,29.96,8.66c4.52-3.53,8.09-15.66-3.76-29.35 c-12.42-14.34-26.48-10.25-29.73-7.15S30.73,70.42,41.65,83.19z" fill="url(#SVGID_1_)"/>
        <path d="M82.52,88.92c-4.34-3.64-6.65-2.99-9.75-1.7c-4,1.66-10.29,2.89-18.83,0l2.57-6.19 c5.07,1.71,8.74,0.88,11.91-0.99c4.08-2.4,9.66-5.69,18.34,1.6c3.62,3.04,7.33,5.06,10.05,4.14c1.98-0.66,3.03-3.61,3.56-5.96 c0.05-0.21,0.13-0.81,0.19-1.34c0.48-3.67,1.28-11.59,7.18-15.64c6.31-4.33,12.94-4.33,12.94-4.33l1.2,11.92 c-3.05-0.45-5.17,0.17-6.96,1.16c-6.74,3.75-0.87,18.15-11.36,22.99C93.47,99.27,85.22,91.18,82.52,88.92z" fill="#03A9F4"/>
        <path d="M45.4,73.72l-4.34-3.89c7.97-8.9,5.87-15.44,4.34-20.2c-0.31-0.96-0.6-1.87-0.79-2.74 c-0.68-3.08-0.82-5.76-0.61-8.1c-3.06-3.81-4.41-7.8-4.5-8.07c-1.86-5.63-0.46-11.12,2.75-16.27C48.74,4,60.49,4,60.49,4 l3.92,10.49c-2.98-0.12-12.75,0.03-15.75,4.76c-3.79,5.96-1.3,9.64-1.12,10.06c0.73-0.95,1.47-1.71,2.13-2.3 c4.79-4.25,8.95-4.86,11.6-4.62c2.98,0.27,5.68,1.77,7.61,4.23c2.11,2.7,2.98,6.21,2.31,9.4c-0.65,3.11-2.72,5.74-5.83,7.41 c-5.43,2.92-9.95,2.52-12.98,1.51c0.02,0.07,0.03,0.15,0.05,0.22c0.11,0.5,0.33,1.2,0.59,2.01 C54.79,52.65,58.08,61.35,45.4,73.72z M52.75,36.19c0.58,0.42,1.19,0.77,1.82,1.02c2.1,0.84,4.39,0.56,6.99-0.84 c1.53-0.82,1.71-1.7,1.77-1.99c0.18-0.87-0.12-1.98-0.77-2.81c-0.57-0.73-1.23-1.11-2.02-1.19c-1.5-0.13-3.53,0.82-5.56,2.63 C54.01,33.88,53.27,34.95,52.75,36.19z" fill="#F44336"/>
        <path d="M62.77,75.35l-6.21-0.17c0,0,2.95-16.66,12.5-19.46c1.79-0.52,3.75-1.05,5.72-1.34 c1.17-0.18,3.02-0.45,3.93-0.79c0.21-1.57-0.45-3.57-1.19-5.84c-0.58-1.76-1.18-3.57-1.5-5.55c-0.62-3.86,0.41-7.27,2.9-9.62 c3.04-2.85,7.95-3.76,13.49-2.5c3.16,0.72,5.49,2.27,7.54,3.63c2.93,1.95,4.64,2.94,8.22,0.53c4.33-2.92-1.33-14.35-4.34-20.95 l11.23-4.68c1.51,3.3,8.8,20.28,3.99,29.97c-1.62,3.26-4.41,5.42-8.07,6.23c-7.96,1.78-12.62-1.32-16.02-3.58 c-1.61-1.07-3.02-1.91-4.55-2.35c-10.63-3.03,4.21,12.61-2.74,19.64c-4.17,4.21-14.36,5.32-15.02,5.48 C66.09,65.58,62.77,75.35,62.77,75.35z" fill="#F48FB1"/>
      </g>
      <path d="M43.99,38.79c-0.19,2.2-0.28,3.51,0.29,6.37c2.75,2.02,8.74,2.02,8.74,2.02 c-0.26-0.81-0.49-1.51-0.59-2.01c-0.02-0.07-0.03-0.15-0.05-0.22C46.29,41.91,43.99,38.79,43.99,38.79z" fill="#C92B27"/>
    </g>
    <polygon fill="#FFC107" points="31.53,48.64 21.19,43.57 26.34,36.13 34.45,41.5 "/>
    <path d="M16.29,34.6c-5.28-0.71-10.66-5.19-11.25-5.7l5.19-6.09c1.57,1.33,4.9,3.56,7.13,3.86L16.29,34.6z" fill="#FB8C00"/>
    <path d="M25.61,21.27l-7.6-2.49c0.87-2.66,1.1-5.53,0.65-8.3l7.9-1.27C27.21,13.23,26.88,17.4,25.61,21.27z " fill="#03A9F4"/>
    <rect fill="#FB8C00" height="10.56" transform="matrix(0.9769 -0.2137 0.2137 0.9769 -2.3917 17.1437)" width="8" x="74.11" y="14.35"/>
    <path d="M92.46,17.77l-5.5-5.81c2.88-2.73,3.54-6.3,3.54-6.34l7.9,1.29C98.3,7.54,97.29,13.2,92.46,17.77z" fill="#FFC107"/>
    <rect fill="#FB8C00" height="8" transform="matrix(0.9545 -0.2983 0.2983 0.9545 -10.7408 32.2313)" width="7.32" x="96.54" y="47.3"/>
    <path d="M97.55,113.03l-7.95-0.94c0.34-2.83-1.77-6.3-2.35-7.07l6.4-4.8 C94.13,100.85,98.3,106.62,97.55,113.03z" fill="#F44336"/>
    <path d="M120.37,102.89c-2.99-0.45-6.05-0.63-9.07-0.52l-0.27-8c3.51-0.12,7.06,0.08,10.53,0.61 L120.37,102.89z" fill="#FB8C00"/>
    <rect fill="#F48FB1" height="10.87" transform="matrix(0.7026 -0.7116 0.7116 0.7026 -47.1516 116.922)" width="8" x="112.29" y="109.43"/>
    <rect fill="#F44336" height="8.78" transform="matrix(0.6583 0.7527 -0.7527 0.6583 84.0086 -46.0064)" width="8.78" x="88.29" y="65.14"/>
  </g>
</svg>

<svg viewBox="0 0 128 128" xmlns="http://www.w3.org/2000/svg">
  <defs>
    <linearGradient id="SVGID_1_" gradientUnits="userSpaceOnUse" x1="74.3843" x2="44.617" y1="61.8385" y2="79.6989">
      <stop offset="0.0235" stop-color="#8F4700"/>
      <stop offset="1" stop-color="#703E2D"/>
    </linearGradient>
  </defs>
  <path d="M7.45,123.27 C9.72,125.73 19.07,121.44 26.45,118 C31.98,115.43 54.11,106.35 65.11,101.64 C68.08,100.37 72.4,98.71 75.51,94.62 C78.27,90.98 85.59,75.52 70.85,59.86 C55.89,43.96 40.48,48.35 34.72,52.43 C31.33,54.83 28.57,60.24 27.33,62.99 C22.09,74.61 14.62,95.9 11.58,104.27 C9.35,110.44 5.2,120.83 7.45,123.27 Z" fill="#FFC107"/>
  <path d="M25.85,66.49 C25.99,68.23 26.34,71.06 27.54,76.51 C28.36,80.25 29.7,84.17 30.79,86.76 C34.06,94.55 38.65,97.69 43.3,100.21 C51.2,104.49 56.57,105.29 56.57,105.29 L50.13,107.92 C50.13,107.92 46.23,107.11 40.91,104.49 C35.84,101.99 30.56,97.76 26.7,89.48 C25.03,85.89 24.06,82.41 23.5,79.65 C22.81,76.23 22.7,74.29 22.7,74.29 L25.85,66.49 Z" fill="#FF8F00"/>
  <path d="M17.94,86.77 C17.94,86.77 18.74,93.26 24.1,101.45 C30.38,111.03 39.15,112.6 39.15,112.6 L33.32,115 C33.32,115 26.81,113.01 20.62,104.56 C16.76,99.29 15.68,92.99 15.68,92.99 L17.94,86.77 Z" fill="#FF8F00"/>
  <path d="M12.39,102.15 C12.39,102.15 13.85,107.75 17.05,111.93 C20.86,116.92 25.71,118.37 25.71,118.37 L21.24,120.35 C21.24,120.35 17.85,119.64 14.14,114.94 C11.32,111.37 10.52,107.27 10.52,107.27 L12.39,102.15 Z" fill="#FF8F00"/>
  <path d="M9.96,116.37 L9.96,116.37 C9.76,115.92 9.76,115.41 9.97,114.97 L35.44,62.15 L39.63,77.9 L12.83,116.61 C12.11,117.69 10.49,117.55 9.96,116.37 Z" fill="#FFFDE7" opacity="0.44"/>
  <path d="M41.65,83.19 C53.55,97.11 67.1,95.37 71.61,91.85 C76.13,88.32 79.7,76.19 67.85,62.5 C55.43,48.16 41.37,52.25 38.12,55.35 C34.87,58.45 30.73,70.42 41.65,83.19 Z" fill="url(#SVGID_1_)"/>
  <path d="M82.52,88.92 C78.18,85.28 75.87,85.93 72.77,87.22 C68.77,88.88 62.48,90.11 53.94,87.22 L56.51,81.03 C61.58,82.74 65.25,81.91 68.42,80.04 C72.5,77.64 78.08,74.35 86.76,81.64 C90.38,84.68 94.09,86.7 96.81,85.78 C98.79,85.12 99.84,82.17 100.37,79.82 C100.42,79.61 100.5,79.01 100.56,78.48 C101.04,74.81 101.84,66.89 107.74,62.84 C114.05,58.51 120.68,58.51 120.68,58.51 L121.88,70.43 C118.83,69.98 116.71,70.6 114.92,71.59 C108.18,75.34 114.05,89.74 103.56,94.58 C93.47,99.27 85.22,91.18 82.52,88.92 Z" fill="#03A9F4"/>
  <path d="M45.4,73.72 L41.06,69.83 C49.03,60.93 46.93,54.39 45.4,49.63 C45.09,48.67 44.8,47.76 44.61,46.89 C43.93,43.81 43.79,41.13 44,38.79 C40.94,34.98 39.59,30.99 39.5,30.72 C37.64,25.09 39.04,19.6 42.25,14.45 C48.74,4 60.49,4 60.49,4 L64.41,14.49 C61.43,14.37 51.66,14.52 48.66,19.25 C44.87,25.21 47.36,28.89 47.54,29.31 C48.27,28.36 49.01,27.6 49.67,27.01 C54.46,22.76 58.62,22.15 61.27,22.39 C64.25,22.66 66.95,24.16 68.88,26.62 C70.99,29.32 71.86,32.83 71.19,36.02 C70.54,39.13 68.47,41.76 65.36,43.43 C59.93,46.35 55.41,45.95 52.38,44.94 C52.4,45.01 52.41,45.09 52.43,45.16 C52.54,45.66 52.76,46.36 53.02,47.17 C54.79,52.65 58.08,61.35 45.4,73.72 Z M52.75,36.19 C53.33,36.61 53.94,36.96 54.57,37.21 C56.67,38.05 58.96,37.77 61.56,36.37 C63.09,35.55 63.27,34.67 63.33,34.38 C63.51,33.51 63.21,32.4 62.56,31.57 C61.99,30.84 61.33,30.46 60.54,30.38 C59.04,30.25 57.01,31.2 54.98,33.01 C54.01,33.88 53.27,34.95 52.75,36.19 Z" fill="#F44336"/>
  <path d="M62.77,75.35 L56.56,75.18 C56.56,75.18 59.51,58.52 69.06,55.72 C70.85,55.2 72.81,54.67 74.78,54.38 C75.95,54.2 77.8,53.93 78.71,53.59 C78.92,52.02 78.26,50.02 77.52,47.75 C76.94,45.99 76.34,44.18 76.02,42.2 C75.4,38.34 76.43,34.93 78.92,32.58 C81.96,29.73 86.87,28.82 92.41,30.08 C95.57,30.8 97.9,32.35 99.95,33.71 C102.88,35.66 104.59,36.65 108.17,34.24 C112.5,31.32 106.84,19.89 103.83,13.29 L115.06,8.61 C116.57,11.91 123.86,28.89 119.05,38.58 C117.43,41.84 114.64,44 110.98,44.81 C103.02,46.59 98.36,43.49 94.96,41.23 C93.35,40.16 91.94,39.32 90.41,38.88 C79.78,35.85 94.62,51.49 87.67,58.52 C83.5,62.73 73.31,63.84 72.65,64 C66.09,65.58 62.77,75.35 62.77,75.35 Z" fill="#F48FB1"/>
  <path d="M43.99,38.79 C43.8,40.99 43.71,42.3 44.28,45.16 C47.03,47.18 53.02,47.18 53.02,47.18 C52.76,46.37 52.53,45.67 52.43,45.17 C52.41,45.1 52.4,45.02 52.38,44.95 C46.29,41.91 43.99,38.79 43.99,38.79 Z" fill="#C92B27"/>
  <path d="M31.53,48.64 L21.19,43.57 L26.34,36.13 L34.45,41.5 Z" fill="#FFC107"/>
  <path d="M16.29,34.6 C11.01,33.89 5.63,29.41 5.04,28.9 L10.23,22.81 C11.8,24.14 15.13,26.37 17.36,26.67 L16.29,34.6 Z" fill="#FB8C00"/>
  <path d="M25.61,21.27 L18.01,18.78 C18.88,16.12 19.11,13.25 18.66,10.48 L26.56,9.21 C27.21,13.23 26.88,17.4 25.61,21.27 Z" fill="#03A9F4"/>
  <path d="M73.073,15.325 L80.888,13.615 L83.145,23.931 L75.33,25.641 L73.073,15.325 Z" fill="#FB8C00"/>
  <path d="M92.46,17.77 L86.96,11.96 C89.84,9.23 90.5,5.66 90.5,5.62 L98.4,6.91 C98.3,7.54 97.29,13.2 92.46,17.77 Z" fill="#FFC107"/>
  <path d="M95.516,48.581 L102.503,46.398 L104.89,54.034 L97.903,56.217 L95.516,48.581 Z" fill="#FB8C00"/>
  <path d="M97.55,113.03 L89.6,112.09 C89.94,109.26 87.83,105.79 87.25,105.02 L93.65,100.22 C94.13,100.85 98.3,106.62 97.55,113.03 Z" fill="#F44336"/>
  <path d="M120.37,102.89 C117.38,102.44 114.32,102.26 111.3,102.37 L111.03,94.37 C114.54,94.25 118.09,94.45 121.56,94.98 L120.37,102.89 Z" fill="#FB8C00"/>
  <path d="M109.614,113.902 L115.235,108.209 L122.97,115.846 L117.349,121.539 L109.614,113.902 Z" fill="#F48FB1"/>
  <path d="M93.099,63.331 L98.879,69.94 L92.27,75.72 L86.49,69.111 L93.099,63.331 Z" fill="#F44336"/>
</svg>
